X: 1991
T: As I Went Out Upon The Ice
R: polka
M: 2/4
K: Adorian
|:g>f|eA BA|e2 AB/d/|eA B/c/B/A/|G2- GB/d/|
eA BA|eA B/c/B/A/|G>e dB|A2:|
|:A2|ea- ab|ag ed|Bd ef|ga/g/ fd|
ea ab|ag ed|Bd gB|A2:|

